app/dist/common/images/kaleyra.svg

<svg height="18" viewBox="0 0 18 18" width="18" xmlns="http://www.w3.org/2000/svg"><path d="m0 0h18v18h-18z" fill="#d60d2f"/><path d="m11 7.88-2-1.28-2 1.28v2.18l2 1.34 2-1.34z" fill="#fdb228"/><path d="m12.4 8.88v-1.8l-1.59-.92 1.49-.74 1.7.73v1.87zm-1.6 2.95 1.63-.99v-1.56l1.57.75v1.75l-1.57.89zm-3.4.17 1.6.98 1.6-.98v1.58l-1.6.92-1.6-.92zm-1.8-2.72v1.56l1.6.94-1.63.89-1.57-.91v-1.73zm0-.6-1.6-.7v-1.73l1.57-.93 1.55.75-1.52.91v1.69zm4.96-2.7-1.56-.88-1.56.9v-1.69l1.56-.81 1.56.83z" fill="#fff"/></svg>

<!-- by TradingView --><svg xmlns="http://www.w3.org/2000/svg" width="18" height="18" viewBox="0 0 18 18"><path fill="#D60D2F" d="M0 0h18v18H0z"/><path d="M11 7.88 9 6.6 7 7.88v2.18l2 1.34 2-1.34V7.88Z" fill="#FDB228"/><path d="M12.4 8.88v-1.8l-1.59-.92 1.49-.74 1.7.73v1.87l-1.6.86Zm-1.6 2.95 1.63-.99V9.28l1.57.75v1.75l-1.57.89-1.63-.84ZM7.4 12l1.6.98 1.6-.98v1.58L9 14.5l-1.6-.92V12ZM5.6 9.28v1.56l1.6.94-1.63.89L4 11.76v-1.73l1.6-.75Zm0-.6L4 7.98V6.25l1.57-.93 1.55.75-1.52.91v1.69Zm4.96-2.7L9 5.1 7.44 6V4.31L9 3.5l1.56.83v1.65Z" fill="#fff"/></svg>
